icons/outline/brightness-up.svg

<!--
category: Photography
tags: [light, screen]
version: "1.3"
unicode: "eb7e"
-->
<svg
  xmlns="http://www.w3.org/2000/svg"
  width="24"
  height="24"
  viewBox="0 0 24 24"
  fill="none"
  stroke="currentColor"
  stroke-width="2"
  stroke-linecap="round"
  stroke-linejoin="round"
>
  <path d="M12 12m-3 0a3 3 0 1 0 6 0a3 3 0 1 0 -6 0m3 -7l0 -2m5 4l1.4 -1.4m.6 6.4l2 0m-4 5l1.4 1.4m-6.4 .6l0 2m-5 -4l-1.4 1.4m.4 -6.4l-2 0m3 -5l-1.4 -1.4" />
</svg>

<!--
category: Photography
tags: [light, screen]
version: "1.3"
unicode: "eb7e"
-->
<svg
  xmlns="http://www.w3.org/2000/svg"
  width="24"
  height="24"
  viewBox="0 0 24 24"
  fill="none"
  stroke="currentColor"
  stroke-width="2"
  stroke-linecap="round"
  stroke-linejoin="round"
>
    <path d="M12 12m-3 0a3 3 0 1 0 6 0a3 3 0 1 0 -6 0M12 5l0 -2M17 7l1.4 -1.4M19 12l2 0M17 17l1.4 1.4M12 19l0 2M7 17l-1.4 1.4M6 12l-2 0M7 7l-1.4 -1.4" />
</svg>
